public/libraries/nextend2/smartslider/media/plugins/widgetfullscreen/image/image/tofull/full2.svg

<svg width="16" height="16" viewBox="0 0 16 16" xmlns="http://www.w3.org/2000/svg"><path d="M10 2v2h3v3h2V2h-5zM6 2v2H3v3H1V2h5zm0 12v-2H3V9H1v5h5zm4 0v-2h3V9h2v5h-5z" fill="#FFF" opacity="1" fill-rule="evenodd"/></svg>

<?xml version="1.0" encoding="UTF-8" standalone="no"?>
<svg width="16px" height="16px" viewBox="0 0 16 16" version="1.1" xmlns="http://www.w3.org/2000/svg" xmlns:xlink="http://www.w3.org/1999/xlink" xmlns:sketch="http://www.bohemiancoding.com/sketch/ns">
    <!-- Generator: Sketch 3.2.2 (9983) - http://www.bohemiancoding.com/sketch -->
    <title>Slice 1</title>
    <desc>Created with Sketch.</desc>
    <defs></defs>
    <g id="Page-1" stroke="none" stroke-width="1" fill="none" fill-rule="evenodd" sketch:type="MSPage">
        <path d="M10,2 L10,4 L13,4 L13,7 L15,7 L15,2 L10,2 L10,2 Z M6,2 L6,4 L3,4 L3,7 L1,7 L1,2 L6,2 L6,2 Z M6,14 L6,12 L3,12 L3,9 L1,9 L1,14 L6,14 L6,14 Z M10,14 L10,12 L13,12 L13,9 L15,9 L15,14 L10,14 L10,14 Z" id="path-1" fill="#FFFFFF" sketch:type="MSShapeGroup"></path>
    </g>
</svg>
